X: 1
T:Huckle and Buff
M:3/2
L:1/8
K:F
P:1
fgag f2 F2 f3 f | gaba g2 G2 g3 g | agab agfe dcBA | BAGF G2 e2 Hf4  ||
P:2
ABcd cAgd  cAGF | ABcd cagf  gedc | ABcd cAfd cAGF | EFGA GEcA GEDC  ||
P:3
fgag f2 F2 f3 f | gaba g2 G2 g3 g | agab agfe dcBA | BAGF G2 e2 f3 _e||
P:4
dfdB dfbf  dfdB | AcAF Acfc  AcAF | EGEC EGcG EGEC | EFGA G2 =B2 c4  |]
